X:7225
T:The Potter's Wheel
R:jig
C:Paul S. Cranford
D:The Lighthouse, Cranford Publications
B:The Lighthouse Collection, ISBN 0-9691181-5-5
N:Contacts ...
N:..... Cranford Publications <http://www.cranfordpub.com>
H:Composed for Deanie Cox, Shape Shifters
Q:288
O:England
L:1/8
M:6/8
K:C
D|EFE EDE|GAG G2 c|ABA AGA|cGE D2F|
EFE EDE|GAG G2 c|(A/B/c)A GED|ECC C2:|
|:d|edc cBc|AcA Gcd|edc ceg|age dcd|
edc cBc|AcA GEG|(A/B/c)A GED|ECC C2:|


